icons/funds-fill.svg

<svg viewBox="0 0 24 24" fill="currentColor" xmlns="http://www.w3.org/2000/svg">
    <path d="M3.90145 17.8636L7.81249 13.9526L10.6409 16.781L15.212 12.2099L17.0049 14.0028V9.00281H12.0049L13.7978 10.7957L10.6409 13.9526L7.81249 11.1241L2.86662 16.07C2.31276 14.8274 2.00488 13.4511 2.00488 12.0028C2.00488 6.47996 6.48204 2.00281 12.0049 2.00281C17.5277 2.00281 22.0049 6.47996 22.0049 12.0028C22.0049 17.5257 17.5277 22.0028 12.0049 22.0028C8.67116 22.0028 5.71844 20.3715 3.90145 17.8636Z"/>
</svg>

<svg xmlns="http://www.w3.org/2000/svg" viewBox="0 0 24 24">
    <g>
        <path fill="none" d="M0 0h24v24H0z"/>
        <path d="M3.897 17.86l3.91-3.91 2.829 2.828 4.571-4.57L17 14V9h-5l1.793 1.793-3.157 3.157-2.828-2.829-4.946 4.946A9.965 9.965 0 0 1 2 12C2 6.477 6.477 2 12 2s10 4.477 10 10-4.477 10-10 10a9.987 9.987 0 0 1-8.103-4.14z"/>
    </g>
</svg>
